icons/laptop.svg

<svg width="24" height="24" viewBox="0 0 24 24" fill="none" xmlns="http://www.w3.org/2000/svg">
<path fill-rule="evenodd" clip-rule="evenodd" d="M2 4C2 3.44772 2.44772 3 3 3H21C21.5523 3 22 3.44772 22 4V17C22 17.5523 21.5523 18 21 18H3C2.44772 18 2 17.5523 2 17V4ZM4 5V16H20V5H4ZM1 20C1 19.4477 1.44772 19 2 19H22C22.5523 19 23 19.4477 23 20C23 20.5523 22.5523 21 22 21H2C1.44772 21 1 20.5523 1 20Z" fill="black"/>
</svg>

<svg
  width="24"
  height="24"
  viewBox="0 0 24 24"
  xmlns="http://www.w3.org/2000/svg"
>
  <path
    fill-rule="evenodd"
    clip-rule="evenodd"
    d="M2 4a1 1 0 0 1 1-1h18a1 1 0 0 1 1 1v13a1 1 0 0 1-1 1H3a1 1 0 0 1-1-1V4zm2 1v11h16V5H4zM1 20a1 1 0 0 1 1-1h20a1 1 0 1 1 0 2H2a1 1 0 0 1-1-1z"
  />
</svg>
